public/img/faq-icon.svg

<svg xmlns="http://www.w3.org/2000/svg">
<symbol id="icon-answer" viewBox="0 0 32 32">
<path d="M23.1162 11.4697C23.2139 11.3721 23.3721 11.3721 23.4697 11.4697L23.8232 11.8232C23.9209 11.9209 23.9208 12.0791 23.8232 12.1768L16.1768 19.8232C16.0791 19.9209 15.9209 19.9209 15.8232 19.8232L8.17676 12.1768C8.07914 12.0791 8.07913 11.9209 8.17676 11.8232L8.53027 11.4697C8.62789 11.3721 8.78615 11.3721 8.88379 11.4697L16 18.5859L23.1162 11.4697Z" fill="#080C09" stroke="#080C09" />
</symbol>
</svg>

<svg xmlns="http://www.w3.org/2000/svg">
<symbol id="icon-answer" viewBox="0 0 32 32">
<path stroke-linejoin="miter" stroke-linecap="butt" stroke-miterlimit="4" stroke-width="1" d="M23.116 11.47c0.098-0.098 0.256-0.098 0.354 0l0.354 0.354c0.098 0.098 0.098 0.256 0 0.354l-7.646 7.646c-0.098 0.098-0.256 0.098-0.354 0l-7.646-7.646c-0.098-0.098-0.098-0.256 0-0.354l0.354-0.354c0.098-0.098 0.256-0.098 0.354 0l7.116 7.116 7.116-7.116z"></path>
</symbol>
</svg>
